out/images/location.svg

<svg fill="none" height="23" viewBox="0 0 18 23" width="18" xmlns="http://www.w3.org/2000/svg"><g fill="#000"><path d="m8.83608 21.7221h.00001l-.00386-.0029h-.00001l-.00014-.0001-.00043-.0004-.00322-.0024-.01466-.0111c-.01336-.0103-.03381-.026-.06089-.0472-.05417-.0423-.1348-.1063-.23813-.191-.2067-.1693-.50394-.4211-.86153-.7477-.7158-.6535-1.67016-1.6034-2.62358-2.787-1.91561-2.3781-3.78149-5.6426-3.78149-9.31082.00001-4.06199 3.45768-7.40554 7.74927-7.40554 4.29198 0 7.75478 3.34398 7.75478 7.40555 0 3.66821-1.8659 6.93261-3.7815 9.31081-.9534 1.1836-1.9078 2.1335-2.6235 2.787-.35764.3266-.65488.5784-.86158.7477-.10333.0847-.18397.1487-.23813.191-.0134.0105-.02518.0196-.03528.0274l-.04349.0333-.00057.0005h-.00002l-.00384.0029c-.04413.0337-.10193.0541-.16411.0541-.06217 0-.11998-.0204-.1641-.0541zm-.14947-.8127.31638.2585.31635-.2585c.42379-.3463 2.14616-1.7826 3.76576-3.9363 1.6148-2.1475 3.1668-5.0603 3.1667-8.35162 0-3.8776-3.2623-6.96768-7.25438-6.96768-3.99268 0-7.2489 3.0906-7.2489 6.96768 0 3.29272 1.55445 6.20652 3.17118 8.35402 1.62146 2.1538 3.34526 3.5895 3.76691 3.9339z" stroke="#000"/><path d="m8.99741 5.02948c-2.06218 0-3.74814 1.61573-3.74815 3.59198-.00001 1.97624 1.68596 3.59724 3.74815 3.59724s3.75369-1.621 3.75369-3.59724c0-1.97625-1.6915-3.59198-3.75369-3.59198zm0 1.43785c1.25149 0 2.25329.95475 2.25329 2.15413s-1.0018 2.15944-2.25329 2.15944c-1.25153 0-2.24779-.96006-2.24778-2.15944 0-1.19938.99626-2.15413 2.24778-2.15413z"/></g></svg>

<svg width="18" height="23" viewBox="0 0 18 23" fill="none" xmlns="http://www.w3.org/2000/svg">
<path d="M8.83608 21.7221L8.83609 21.7221L8.83223 21.7192L8.83222 21.7192L8.83208 21.7191L8.83165 21.7187L8.82843 21.7163L8.81377 21.7052C8.80041 21.6949 8.77996 21.6792 8.75288 21.658C8.69871 21.6157 8.61808 21.5517 8.51475 21.467C8.30805 21.2977 8.01081 21.0459 7.65322 20.7193C6.93742 20.0658 5.98306 19.1159 5.02964 17.9323C3.11403 15.5542 1.24815 12.2897 1.24815 8.62148C1.24816 4.55949 4.70583 1.21594 8.99742 1.21594C13.2894 1.21594 16.7522 4.55992 16.7522 8.62149C16.7522 12.2897 14.8863 15.5541 12.9707 17.9323C12.0173 19.1159 11.0629 20.0658 10.3472 20.7193C9.98956 21.0459 9.69232 21.2977 9.48562 21.467C9.38229 21.5517 9.30165 21.6157 9.24749 21.658C9.23409 21.6685 9.22231 21.6776 9.21221 21.6854L9.16872 21.7187L9.16815 21.7192L9.16813 21.7192L9.16429 21.7221C9.12016 21.7558 9.06236 21.7762 9.00018 21.7762C8.93801 21.7762 8.8802 21.7558 8.83608 21.7221ZM8.68661 20.9094L9.00299 21.1679L9.31934 20.9094C9.74313 20.5631 11.4655 19.1268 13.0851 16.9731C14.6999 14.8256 16.2519 11.9128 16.2518 8.62148C16.2518 4.74388 12.9895 1.6538 8.99742 1.6538C5.00474 1.6538 1.74852 4.7444 1.74852 8.62148C1.74852 11.9142 3.30297 14.828 4.9197 16.9755C6.54116 19.1293 8.26496 20.565 8.68661 20.9094Z" fill="black" stroke="black"/>
<path d="M8.99741 5.02948C6.93523 5.02948 5.24927 6.64521 5.24926 8.62146C5.24925 10.5977 6.93522 12.2187 8.99741 12.2187C11.0596 12.2187 12.7511 10.5977 12.7511 8.62146C12.7511 6.64521 11.0596 5.02948 8.99741 5.02948ZM8.99741 6.46733C10.2489 6.46733 11.2507 7.42208 11.2507 8.62146C11.2507 9.82084 10.2489 10.7809 8.99741 10.7809C7.74588 10.7809 6.74962 9.82084 6.74963 8.62146C6.74963 7.42208 7.74589 6.46733 8.99741 6.46733Z" fill="black"/>
</svg>
